X:1
T:Aura Lee
C:George Poulton
M:4/4
L:1/4
Q:1/4=90
K:G
G2 A B | c2 B c | d4 | d2 c B | A2 G2 | G2 A B | c2 B c | d4 | d2 e d | c2 B A | B4 | c2 B A | G4 |]
w: Au-ra Lee Au-ra | Lee maid of | gold-en | hair sun-shine | came a-long with | Au-ra Lee the | mock-ing bird sang | sweet in the | wil-low tree at | night to win the | heart of Au-ra | Lee | Au-ra | Lee
